build/img/img-advantage-2.svg

<?xml version="1.0" encoding="UTF-8"?>
<svg width="79px" height="79px" viewBox="0 0 79 79" version="1.1" xmlns="http://www.w3.org/2000/svg" xmlns:xlink="http://www.w3.org/1999/xlink">
    <!-- Generator: Sketch 47.1 (45422) - http://www.bohemiancoding.com/sketch -->
    <title>Group 15</title>
    <desc>Created with Sketch.</desc>
    <defs></defs>
    <g id="Page-1" stroke="none" stroke-width="1" fill="none" fill-rule="evenodd">
        <g id="Desktop-HD-Copy-3" transform="translate(-684.000000, -2310.000000)">
            <g id="noun_1163838_cc" transform="translate(684.000000, 2310.000000)">
                <g id="Group-15">
                    <path d="M39.5,0 C17.775,0 0,17.775 0,39.5 C0,61.225 17.775,79 39.5,79 C61.225,79 79,61.225 79,39.5 C79,17.775 61.225,0 39.5,0 Z M39.5,75.05 C19.8816667,75.05 3.95,59.1183333 3.95,39.5 C3.95,19.8816667 19.8816667,3.95 39.5,3.95 C59.1183333,3.95 75.05,19.8816667 75.05,39.5 C75.05,59.1183333 59.1183333,75.05 39.5,75.05 Z M39.5,32.5216667 C35.6816667,32.5216667 32.5216667,35.6816667 32.5216667,39.5 C32.5216667,43.3183333 35.6816667,46.4783333 39.5,46.4783333 C43.3183333,46.4783333 46.4783333,43.3183333 46.4783333,39.5 C46.4783333,35.6816667 43.3183333,32.5216667 39.5,32.5216667 Z M39.5,42.5283333 C37.7883333,42.5283333 36.4716667,41.2116667 36.4716667,39.5 C36.4716667,37.7883333 37.7883333,36.4716667 39.5,36.4716667 C41.2116667,36.4716667 42.5283333,37.7883333 42.5283333,39.5 C42.5283333,41.2116667 41.2116667,42.5283333 39.5,42.5283333 Z M58.3283333,46.0833333 C58.065,46.8733333 57.275,47.4 56.485,47.4 C56.2216667,47.4 56.09,47.4 55.8266667,47.2683333 L47.6633333,44.3716667 C48.3216667,43.3183333 48.8483333,42.0016667 48.98,40.685 L57.1433333,43.5816667 C58.1966667,43.9766667 58.7233333,45.03 58.3283333,46.0833333 Z" id="Shape" fill="#33495F" fill-rule="nonzero"></path>
                    <path d="M33.7066667,10.5333333 C33.575,9.48 34.365,8.42666667 35.4183333,8.295 C36.4716667,8.16333333 37.525,8.95333333 37.6566667,10.0066667 L40.29,29.8883333 C40.0266667,29.8883333 39.7633333,29.8883333 39.5,29.8883333 C38.4466667,29.8883333 37.2616667,30.1516667 36.34,30.415 L33.7066667,10.5333333 Z" id="Path" fill="#E94C36"></path>
                </g>
            </g>
        </g>
    </g>
</svg>

<svg width="79" height="79" viewBox="0 0 79 79" xmlns="http://www.w3.org/2000/svg"><title>Group 15</title><g id="Page-1" fill="none" fill-rule="evenodd"><g id="Desktop-HD-Copy-3" transform="translate(-684 -2310)"><g id="noun_1163838_cc" transform="translate(684 2310)"><g id="Group-15"><path d="M39.5 0C17.775 0 0 17.775 0 39.5S17.775 79 39.5 79 79 61.225 79 39.5 61.225 0 39.5 0zm0 75.05c-19.618 0-35.55-15.932-35.55-35.55 0-19.618 15.932-35.55 35.55-35.55 19.618 0 35.55 15.932 35.55 35.55 0 19.618-15.932 35.55-35.55 35.55zm0-42.528c-3.818 0-6.978 3.16-6.978 6.978 0 3.818 3.16 6.978 6.978 6.978 3.818 0 6.978-3.16 6.978-6.978 0-3.818-3.16-6.978-6.978-6.978zm0 10.006c-1.712 0-3.028-1.316-3.028-3.028s1.316-3.028 3.028-3.028 3.028 1.316 3.028 3.028-1.316 3.028-3.028 3.028zm18.828 3.555c-.263.79-1.053 1.317-1.843 1.317-.263 0-.395 0-.658-.132l-8.164-2.896c.659-1.054 1.185-2.37 1.317-3.687l8.163 2.897c1.054.395 1.58 1.448 1.185 2.501z" id="Shape" fill="#33495F" fill-rule="nonzero"/><path d="M33.707 10.533c-.132-1.053.658-2.106 1.711-2.238 1.054-.132 2.107.658 2.239 1.712l2.633 19.881h-.79c-1.053 0-2.238.264-3.16.527l-2.633-19.882z" id="Path" fill="#E94C36"/></g></g></g></g></svg>
